tools/download-figma-icons/icons/outlined-medium/surface-66.svg

<svg width="24" height="24" viewBox="0 0 24 24" fill="none" xmlns="http://www.w3.org/2000/svg">
<path opacity="0.2" d="M12.0345 18.7496C11.9137 18.7496 11.793 18.7204 11.682 18.6619L0.3975 12.6619C0.153 12.5314 0 12.2764 0 11.9989C0 11.7214 0.15375 11.4664 0.39975 11.3366L11.6805 5.33888C11.9018 5.22038 12.1665 5.22038 12.3878 5.33888L23.6033 11.3389C23.847 11.4694 23.9993 11.7236 23.9993 12.0004C23.9993 12.2771 23.847 12.5314 23.6033 12.6619L12.3878 18.6619C12.2775 18.7211 12.1552 18.7504 12.0338 18.7504L12.0345 18.7496ZM2.35125 12.0019L12.0338 17.1491L21.66 11.9996L12.0345 6.85013L2.35125 12.0019Z" fill="black"/>
<path d="M12.0255 18.7504C11.9047 18.7504 11.784 18.7211 11.673 18.6626L3.21 14.1626C2.9655 14.0321 2.8125 13.7771 2.8125 13.4996C2.8125 13.2221 2.96625 12.9671 3.21225 12.8374L11.6715 8.33888C11.8927 8.22038 12.1575 8.22038 12.3787 8.33888L20.7908 12.8389C21.0345 12.9694 21.1868 13.2236 21.1868 13.5004C21.1868 13.7771 21.0345 14.0314 20.7908 14.1619L12.3787 18.6619C12.2685 18.7211 12.147 18.7504 12.0255 18.7504ZM5.16375 13.5026L12.0248 17.1499L18.8475 13.5004L12.0255 9.85087L5.16375 13.5026Z" fill="black"/>
</svg>

<svg xmlns="http://www.w3.org/2000/svg" width="24" height="24" fill="none" viewBox="0 0 24 24"><path fill="currentColor" d="M12.035 18.75a.76.76 0 0 1-.353-.088l-11.284-6A.752.752 0 0 1 .4 11.337l11.28-5.998a.75.75 0 0 1 .708 0l11.215 6a.75.75 0 0 1 0 1.323l-11.215 6a.75.75 0 0 1-.354.088M2.35 12.002l9.683 5.147L21.66 12l-9.625-5.15z" opacity=".2"/><path fill="currentColor" d="M12.026 18.75a.76.76 0 0 1-.353-.087l-8.463-4.5a.752.752 0 0 1 .002-1.326l8.46-4.498a.75.75 0 0 1 .707 0l8.412 4.5a.75.75 0 0 1 0 1.323l-8.412 4.5a.75.75 0 0 1-.354.088m-6.862-5.247 6.86 3.647 6.824-3.65-6.822-3.65z"/></svg>
